X:1
T:Texas
C:Tommy Mates
L:1/8
M:4/4
I:linebreak $
K:D
V:1 treble
V:1
"A" a2 a2 a2 ef |"A7" g2 f2 e3 f |"G" g2 g2 g3 a |"D" fe d2 d2 fg |"A" a2 a2 a2 ef |$
"A7" g2 f2 e3 f |"A" e2 d2 c2 A2 | "E7" BABA"A" c2 A2 |[M:2/4] A4 :|[M:4/4] |: "A"AB c2 AB c2 |$
"D" e2 d2 d4 | de f2 de f2 |"G" g2 f2"A" e3 f |  e2 d2 c2 A2 |"E7" BABA"A" c2 A2 |[M:2/4] A4 :|
